X: 136
T:POLKA PIQUEE DE PLOEUC
M:4/4
L:1/4
Q:1/4=120
Z:Yves BELOTTEAU
K:C
% Last note suggests Locrian mode tune
|cggf/2e/2 fga3/2 z/2 |gagf/2e/2 dgec|cggf/2e/2 fga3/2 z/2 |gagf/2e/2 dg
c3/2 z/2 |
g3/2 z/2 ef/2e/2 ddec|g3/2 z/2 ef/2e/2 ddB3/2 z/2 |g3/2 z/2 ef/2e/2 ddec
|g3/2 z/2 ef/2e/2 ddB3/2|
W:
W: From "Falaleiro" http://home.t-online.de/home/pheld/homepage.htm

